src/images/transfer_icon.svg

<svg width="25" height="25" viewBox="0 0 25 25" fill="none" xmlns="http://www.w3.org/2000/svg">
<g clip-path="url(#clip0_20_693)">
<path d="M5.20834 22.9167C5.20899 23.469 5.42869 23.9985 5.81925 24.3891C6.20981 24.7797 6.73934 24.9994 7.29167 25H17.7083C18.2607 24.9994 18.7902 24.7797 19.1808 24.3891C19.5713 23.9985 19.791 23.469 19.7917 22.9167V22.0052H5.20834V22.9167Z" fill="#B1B1B1"/>
<path d="M19.7917 2.08333C19.791 1.531 19.5713 1.00148 19.1808 0.610917C18.7902 0.220358 18.2607 0.00065473 17.7083 0L7.29167 0C6.73934 0.00065473 6.20981 0.220358 5.81925 0.610917C5.42869 1.00148 5.20899 1.531 5.20834 2.08333V3.125H19.7917V2.08333Z" fill="#B1B1B1"/>
<path d="M24.7098 6.70052L21.5848 3.44531L20.0819 4.88802L21.3893 6.25H19.7917V8.33333H21.5017L20.1126 9.66459L21.554 11.1688L24.679 8.17396C24.7779 8.07926 24.857 7.96602 24.9121 7.8407C24.9671 7.71538 24.9969 7.58045 24.9997 7.44361C25.0026 7.30677 24.9785 7.17071 24.9287 7.04321C24.8789 6.91571 24.8045 6.79926 24.7098 6.70052Z" fill="#B1B1B1"/>
<path d="M16.6667 6.24999H19.7917V4.16666H5.20834V16.6667H8.33334V18.75H5.20834V20.8333H19.7917V8.33332H16.6667V6.24999ZM15.625 10.4167H11.9792C11.841 10.4167 11.7086 10.4715 11.6109 10.5692C11.5132 10.6669 11.4583 10.7994 11.4583 10.9375C11.4583 11.0756 11.5132 11.2081 11.6109 11.3058C11.7086 11.4035 11.841 11.4583 11.9792 11.4583H13.0208C13.6666 11.4577 14.2897 11.697 14.7689 12.1299C15.2482 12.5627 15.5495 13.1582 15.6144 13.8008C15.6793 14.4433 15.5032 15.087 15.1202 15.607C14.7371 16.127 14.1746 16.4861 13.5417 16.6146V17.7083H11.4583V16.6667H9.375V14.5833H13.0208C13.159 14.5833 13.2914 14.5285 13.3891 14.4308C13.4868 14.3331 13.5417 14.2006 13.5417 14.0625C13.5417 13.9244 13.4868 13.7919 13.3891 13.6942C13.2914 13.5965 13.159 13.5417 13.0208 13.5417H11.9792C11.3334 13.5423 10.7104 13.303 10.2311 12.8701C9.75181 12.4372 9.45047 11.8417 9.38557 11.1992C9.32067 10.5567 9.49683 9.91293 9.87985 9.39297C10.2629 8.87301 10.8254 8.51392 11.4583 8.38541V7.29166H13.5417V8.33332H15.625V10.4167Z" fill="#B1B1B1"/>
<path d="M3.4983 16.6667L4.88736 15.3354L3.44596 13.8312L0.320958 16.826C0.222142 16.9207 0.142956 17.034 0.0879278 17.1593C0.0328995 17.2846 0.00310698 17.4195 0.00025318 17.5564C-0.00260062 17.6932 0.0215402 17.8293 0.0712959 17.9568C0.121052 18.0843 0.195447 18.2007 0.290229 18.2995L3.41523 21.5547L4.91809 20.112L3.61067 18.75H5.20833V16.6667H3.4983Z" fill="#B1B1B1"/>
</g>
<defs>
<clipPath id="clip0_20_693">
<rect width="25" height="25" fill="white"/>
</clipPath>
</defs>
</svg>

<svg xmlns="http://www.w3.org/2000/svg" width="25" height="25" fill="none"><g fill="#B1B1B1" clip-path="url(#a)"><path d="M5.208 22.917A2.086 2.086 0 0 0 7.292 25h10.416a2.086 2.086 0 0 0 2.084-2.083v-.912H5.208v.912ZM19.792 2.083A2.086 2.086 0 0 0 17.708 0H7.292a2.086 2.086 0 0 0-2.084 2.083v1.042h14.584V2.083ZM24.71 6.7l-3.125-3.255-1.503 1.443 1.307 1.362h-1.597v2.083h1.71l-1.39 1.332 1.442 1.504 3.125-2.995a1.042 1.042 0 0 0 .03-1.473Z"/><path d="M16.667 6.25h3.125V4.167H5.208v12.5h3.125v2.083H5.208v2.083h14.584v-12.5h-3.125V6.25Zm-1.042 4.167h-3.646a.52.52 0 1 0 0 1.041h1.042a2.604 2.604 0 0 1 .52 5.157v1.093h-2.083v-1.041H9.375v-2.084h3.646a.52.52 0 1 0 0-1.041h-1.042a2.604 2.604 0 0 1-.52-5.157V7.292h2.083v1.041h2.083v2.084ZM3.498 16.667l1.39-1.332-1.442-1.504-3.125 2.995a1.042 1.042 0 0 0-.03 1.473l3.124 3.256 1.503-1.443-1.307-1.362h1.597v-2.083h-1.71Z"/></g><defs><clipPath id="a"><path fill="#fff" d="M0 0h25v25H0z"/></clipPath></defs></svg>
